images/fun.svg

<svg height="250" viewBox="0 0 250 250" width="250" xmlns="http://www.w3.org/2000/svg"><path d="m36.609375 36.613281c-48.8125 48.8125-48.8125 127.960938 0 176.777344 29.878906 29.875 71.113281 41.464844 109.808594 34.769531l-54.613281-54.609375 43.113281-43.113281-35.355469-35.355469-40.164062 40.167969c-12.300782-26.6875-7.453126-59.328125 14.53125-81.316406 13.257812-13.296875 31.183593-20.886719 49.960937-21.15625l-44.285156-44.277344c-16.128907 6.285156-30.769531 15.855469-42.996094 28.113281zm0 0" fill="#e42c84"/><path d="m103.917969 1.78125 54.472656 54.472656-43.308594 43.3125 35.355469 35.355469 40.164062-40.167969c12.300782 26.683594 7.457032 59.324219-14.53125 81.3125-13.164062 13.203125-30.9375 20.777344-49.574218 21.136719l44.183594 44.1875c16.015624-6.285156 30.558593-15.820313 42.710937-28 48.8125-48.816406 48.8125-127.964844 0-176.777344-29.78125-29.789062-70.875-41.402343-109.472656-34.832031zm0 0" fill="#009eff"/></svg>

<svg xmlns="http://www.w3.org/2000/svg" xmlns:xlink="http://www.w3.org/1999/xlink" width="250px" height="250px" viewBox="0 0 250 250" version="1.1">
<g id="surface1">
<path style=" stroke:none;fill-rule:nonzero;fill:rgb(89.411765%,17.254902%,51.764709%);fill-opacity:1;" d="M 36.609375 36.613281 C -12.203125 85.425781 -12.203125 164.574219 36.609375 213.390625 C 66.488281 243.265625 107.722656 254.855469 146.417969 248.160156 L 91.804688 193.550781 L 134.917969 150.4375 L 99.5625 115.082031 L 59.398438 155.25 C 47.097656 128.5625 51.945312 95.921875 73.929688 73.933594 C 87.1875 60.636719 105.113281 53.046875 123.890625 52.777344 L 79.605469 8.5 C 63.476562 14.785156 48.835938 24.355469 36.609375 36.613281 Z M 36.609375 36.613281 "/>
<path style=" stroke:none;fill-rule:nonzero;fill:rgb(0%,61.960787%,100%);fill-opacity:1;" d="M 103.917969 1.78125 L 158.390625 56.253906 L 115.082031 99.566406 L 150.4375 134.921875 L 190.601562 94.753906 C 202.902344 121.4375 198.058594 154.078125 176.070312 176.066406 C 162.90625 189.269531 145.132812 196.84375 126.496094 197.203125 L 170.679688 241.390625 C 186.695312 235.105469 201.238281 225.570312 213.390625 213.390625 C 262.203125 164.574219 262.203125 85.425781 213.390625 36.613281 C 183.609375 6.824219 142.515625 -4.789062 103.917969 1.78125 Z M 103.917969 1.78125 "/>
</g>
</svg>
